X:1
T:Title
%%score { 1 | ( 2 3 ) }
L:1/8
M:4/4
K:Bb
V:1 treble nm="Grand Piano"
V:2 bass 
V:3 bass 
V:1
 z4 z2[Q:1/4=100] [B,D][CE] | [DF]2 [DB]>[Ec] [Fd]2 [Ec]>[Fd] | [Ge]2 GA [DB]2 [DB]>[FA] | %3
 G2 G>G GB[FA][EG] | [DF]6 [B,D]>[CE] | [DF]2 [DB]>[Ec] [Fd]2 [Ec][Fd] | [Ge]2 GA [DB]2 [DB]>[Fd] | %7
 [=Ec]2 [Ec]>[Ed] [Ec][EB][EA][EG] | F6 z2 | [DB]2 z2 [Fd]2 [Fd][Fd] | c>B A>B c2 z2 | %11
 c2 z2 [Ge]2 [Ge]>[Ge] | d>c B>c [Fd]2 D>[CE] | [DF]2 [DB]>[Ec] [Fd]2 [Ec]>[Fd] | %14
 [Ge]<[Ge] [EG]>[EA] [DB]2 [DB]>[FA] | [EG]2 [Ge]2 d2 c2 |[M:3/4] [DB]6 |] %17
V:2
 z4 z2 [B,,F,]2 | [B,,B,]2 [B,,B,]>[B,,B,] [B,,B,]2 [B,,B,]>[B,,B,] | %2
 [E,B,]2 [E,B,E]2 [B,,B,]2 [B,,B,]>[D,B,] | z4 .E2 z2 | [B,,B,]6 [B,,F,]>[B,,F,] | %5
 [B,,B,]2 [B,,B,]>[B,,B,] [B,,B,]2 [B,,B,]2 | [E,B,]2 [E,B,E]2 [B,,B,]2 [B,,B,]>[B,,B,] | %7
 [C,G,]2 [C,G,]>[C,B,] [C,A,][C,G,][C,C][C,B,] | [F,A,]6 z2 | [B,,B,]2 z2 [B,,B,]2 [B,,B,][B,,B,] | %10
 [F,F]2 z2 z4 | [F,A,F]2 z2 [C,C]2 [C,C]>[C,C] | [F,F]>[F,E] [F,D]>[F,E] [B,,B,]2 [B,,B,]>[B,,B,] | %13
 [B,,B,]2 [B,,B,]>[B,,B,] [B,,B,]2 [B,,B,]>[B,,B,] | %14
 [E,B,]<[E,B,] [E,B,]>[E,B,] [B,,B,]2 [B,,B,]>[D,B,] | [E,B,]2 [C,C]2 [F,F]2 [F,A,E]2 | %16
[M:3/4] [B,,B,]6 |] %17
V:3
 x8 | x8 | x8 | [E,B,E]2 [E,B,E]>[E,B,E] [E,B,]-[E,B,G] [E,B,]2 | x8 | x8 | x8 | x8 | x8 | x8 | %10
 A,>G, [F,F]>[F,G,F] [F,A,F]2 z2 | x8 | x8 | x8 | x8 | x8 |[M:3/4] x6 |] %17

